**kern	**silbe	**kern	**silbe	**kern	**silbe	**harmony	**phrase	**leadinstrument	**rhyme	**timestamp	**harte
*ICvox	*	*ICvox	*	*ICvox	*	*M4/4	*	*	*	*	*M4/4
*VRlead	*	*VRharmonize	*	*VRresponse	*	*	*	*	*	*	*
*Hstimme	*	*Nstimme	*	*Nstimme	*	*	*	*	*	*	*
*B:	*	*B:	*	*B:	*	*B:	*	*	*	*	*B:
*M4/4	*	*M4/4	*	*M4/4	*	*	*	*	*	*	*
*clefG2	*	*clefG2	*	*clefG2	*	*	*	*	*	*	*
2r	.	1r	.	1r	.	1r;	.	r	.	0	N.C.
8r	.	.	.	.	.	.	.	.	.	.	.
8F#	We've	.	.	.	.	.	.	.	.	.	.
8G#	been	.	.	.	.	.	.	.	.	.	.
8A#	to-	.	.	.	.	.	.	.	.	.	.
=1	=1	=1	=1	=1	=1	=1	=1	=1	=1	=1	=1
*>Letter>A	*>Letter>A	*>Letter>A	*>Letter>A	*>Letter>A	*>Letter>A	*>Letter>A	*>Letter>A	*>Letter>A	*>Letter>A	*>Letter>A	*>Letter>A
*>Label>Verse	*>Label>Verse	*>Label>Verse	*>Label>Verse	*>Label>Verse	*>Label>Verse	*>Label>Verse	*>Label>Verse	*>Label>Verse	*>Label>Verse	*>Label>Verse	*>Label>Verse
[4c#	-ge-	1r	.	1r	.	2BM	newline	voice	.	1.529	B:5
16c#]	_	.	.	.	.	.	.	.	.	.	.
16B	_	.	.	.	.	.	.	.	.	.	.
16B	-ther	.	.	.	.	.	.	.	.	.	.
[16A#	now	.	.	.	.	.	.	.	.	.	.
8A#]	_	.	.	.	.	2F#M	.	voice	.	3.042	F#:sus4
16B	for	.	.	.	.	.	.	.	.	.	.
[16A#	such	.	.	.	.	.	.	.	.	.	.
16A#]	_	.	.	.	.	.	.	.	.	.	.
8G#	a	.	.	.	.	.	.	.	.	.	.
[16F#	long	.	.	.	.	.	.	.	.	.	.
=2	=2	=2	=2	=2	=2	=2	=2	=2	=2	=2	=2
8F#]	_	1r	.	1r	.	1EM	.	voice	.	4.554	E:sus2
16F#	time	.	.	.	.	.	.	.	.	.	.
16G#	_	.	.	.	.	.	.	.	.	.	.
4r	.	.	.	.	.	.	.	.	.	.	.
8r	.	.	.	.	.	.	.	.	.	.	.
8F#	Through	.	.	.	.	.	.	.	.	.	.
16G#	e-	.	.	.	.	.	.	.	.	.	.
8A#	-very	.	.	.	.	.	.	.	.	.	.
[16c#	trial	.	.	.	.	.	.	.	.	.	.
=3	=3	=3	=3	=3	=3	=3	=3	=3	=3	=3	=3
4.c#]	_	1r	.	1r	.	2BM	.	voice	.	7.58	B:5
16B	we'd	.	.	.	.	.	.	.	.	.	.
[16A#	e-	.	.	.	.	.	.	.	.	.	.
16A#]	_	.	.	.	.	2F#M	.	voice	.	9.092	F#:sus4
16B	-ver	.	.	.	.	.	.	.	.	.	.
8r	.	.	.	.	.	.	.	.	.	.	.
16A#	care	.	.	.	.	.	.	.	.	.	.
16G#	_	.	.	.	.	.	.	.	.	.	.
16F#	to	.	.	.	.	.	.	.	.	.	.
[16G#	go	.	.	.	.	.	.	.	A	.	.
=4	=4	=4	=4	=4	=4	=4	=4	=4	=4	=4	=4
16G#]	_	1r	.	1r	.	1EM	.	voice	.	10.605	E:sus2
16r	.	.	.	.	.	.	.	.	.	.	.
8r	.	.	.	.	.	.	.	.	.	.	.
4r	.	.	.	.	.	.	.	.	.	.	.
8r	.	.	.	.	.	.	.	.	.	.	.
16B	When	.	.	.	.	.	.	.	.	.	.
8c#	I	.	.	.	.	.	.	.	.	.	.
8d#	look	.	.	.	.	.	.	.	.	.	.
[16f#	back	.	.	.	.	.	.	.	.	.	.
=5	=5	=5	=5	=5	=5	=5	=5	=5	=5	=5	=5
4.f#]	_	1r	.	1r	.	2AMm	newline	voice	.	13.63	A:9
16e	I	.	.	.	.	.	.	.	.	.	.
[16d#	al-	.	.	.	.	.	.	.	.	.	.
16d#]	_	.	.	.	.	2EM	.	voice	.	15.145	E:maj/3
8e	-most	.	.	.	.	.	.	.	.	.	.
16d#	can't	.	.	.	.	.	.	.	.	.	.
8c#	_	.	.	.	.	.	.	.	.	.	.
16B	be-	.	.	.	.	.	.	.	.	.	.
[16B	-lieve	.	.	.	.	.	.	.	.	.	.
=6	=6	=6	=6	=6	=6	=6	=6	=6	=6	=6	=6
16B]	_	1r	.	1r	.	2AMm	.	voice	.	16.66	A:9
16c#	it	.	.	.	.	.	.	.	.	.	.
8r	.	.	.	.	.	.	.	.	.	.	.
8.r	.	.	.	.	.	.	.	.	.	.	.
16B	We're	.	.	.	.	.	.	.	.	.	.
8e	not	.	.	.	.	2EM	.	voice	.	18.175	E:maj/3
16d#	the	.	.	.	.	.	.	.	.	.	.
[16B	same	.	.	.	.	.	.	.	.	.	.
8B]	_	.	.	.	.	.	.	.	.	.	.
8e	peo-	.	.	.	.	.	.	.	.	.	.
=7	=7	=7	=7	=7	=7	=7	=7	=7	=7	=7	=7
8d#	-ple	1r	.	1r	.	2BM	.	voice	.	19.691	B:5
8r	.	.	.	.	.	.	.	.	.	.	.
8r	.	.	.	.	.	.	.	.	.	.	.
8B	that	.	.	.	.	.	.	.	.	.	.
8e	we	.	.	.	.	2EM	.	voice	.	21.206	E:5
8d#	used	.	.	.	.	.	.	.	.	.	.
8B	to	.	.	.	.	.	.	.	.	.	.
[8c#	know	.	.	.	.	.	.	.	A	.	.
=8	=8	=8	=8	=8	=8	=8	=8	=8	=8	=8	=8
8c#]	_	1r	.	1r	.	1F#M	.	voice	.	22.721	F#:maj
8r	.	.	.	.	.	.	.	.	.	.	.
4r	.	.	.	.	.	.	.	.	.	.	.
8r	.	.	.	.	.	.	.	.	.	.	.
16F#	With	.	.	.	.	.	.	.	.	.	.
8G#	all	.	.	.	.	.	.	.	.	.	.
8A#	the	.	.	.	.	.	.	.	.	.	.
[16c#	years	.	.	.	.	.	.	.	.	.	.
=9	=9	=9	=9	=9	=9	=9	=9	=9	=9	=9	=9
*>Letter>A	*>Letter>A	*>Letter>A	*>Letter>A	*>Letter>A	*>Letter>A	*>Letter>A	*>Letter>A	*>Letter>A	*>Letter>A	*>Letter>A	*>Letter>A
*>Label>Verse	*>Label>Verse	*>Label>Verse	*>Label>Verse	*>Label>Verse	*>Label>Verse	*>Label>Verse	*>Label>Verse	*>Label>Verse	*>Label>Verse	*>Label>Verse	*>Label>Verse
4.c#]	_	1r	.	1r	.	2BM	newline	voice	.	25.751	B:maj
16B	be-	.	.	.	.	.	.	.	.	.	.
[16A#	-hind	.	.	.	.	.	.	.	.	.	.
16A#]	_	.	.	.	.	2F#M	.	voice	.	27.257	F#:sus4
8B	me	.	.	.	.	.	.	.	.	.	.
[16A#	spent	.	.	.	.	.	.	.	.	.	.
8A#]	_	.	.	.	.	.	.	.	.	.	.
16G#	pre-	.	.	.	.	.	.	.	.	.	.
[16F#	-tend-	.	.	.	.	.	.	.	.	.	.
=10	=10	=10	=10	=10	=10	=10	=10	=10	=10	=10	=10
16F#]	_	1r	.	1r	.	1EMm	.	voice	.	28.764	E:9
16F#	-ing	.	.	.	.	.	.	.	.	.	.
8G#	_	.	.	.	.	.	.	.	.	.	.
4r	.	.	.	.	.	.	.	.	.	.	.
8r	.	.	.	.	.	.	.	.	.	.	.
8F#	I	.	.	.	.	.	.	.	.	.	.
16G#	did-	.	.	.	.	.	.	.	.	.	.
8A#	-'nt	.	.	.	.	.	.	.	.	.	.
[16c#	need	.	.	.	.	.	.	.	.	.	.
=11	=11	=11	=11	=11	=11	=11	=11	=11	=11	=11	=11
4c#_	_	1r	.	1r	.	2BM	.	voice	.	31.777	B:maj
16c#]	_	.	.	.	.	.	.	.	.	.	.
8B	some-	.	.	.	.	.	.	.	.	.	.
[16A#	-one	.	.	.	.	.	.	.	.	.	.
16A#]	_	.	.	.	.	2F#M	.	voice	.	33.283	F#:sus4
8B	like	.	.	.	.	.	.	.	.	.	.
16A#	you	.	.	.	.	.	.	.	.	.	.
8G#	_	.	.	.	.	.	.	.	.	.	.
16F#	a-	.	.	.	.	.	.	.	.	.	.
[16G#	-round	.	.	.	.	.	.	.	b	.	.
=12	=12	=12	=12	=12	=12	=12	=12	=12	=12	=12	=12
8G#]	_	1r	.	1r	.	1EMm	.	voice	.	34.789	E:9
8r	.	.	.	.	.	.	.	.	.	.	.
4r	.	.	.	.	.	.	.	.	.	.	.
8r	.	.	.	.	.	.	.	.	.	.	.
16B	It	.	.	.	.	.	.	.	.	.	.
8c#	makes	.	.	.	.	.	.	.	.	.	.
8d#	it	.	.	.	.	.	.	.	.	.	.
[16f#	e-	.	.	.	.	.	.	.	.	.	.
=13	=13	=13	=13	=13	=13	=13	=13	=13	=13	=13	=13
4f#_	_	1r	.	1r	.	2AMm	newline	voice	.	37.802	A:9
16f#]	_	.	.	.	.	.	.	.	.	.	.
8e	-ven	.	.	.	.	.	.	.	.	.	.
[16d#	hard-	.	.	.	.	.	.	.	.	.	.
8d#]	_	.	.	.	.	2EM	.	voice	.	39.329	E:maj/3
16e	-er	.	.	.	.	.	.	.	.	.	.
[16d#	to	.	.	.	.	.	.	.	.	.	.
8d#]	_	.	.	.	.	.	.	.	.	.	.
16c#	i-	.	.	.	.	.	.	.	.	.	.
[16B	-ma-	.	.	.	.	.	.	.	.	.	.
=14	=14	=14	=14	=14	=14	=14	=14	=14	=14	=14	=14
16B]	_	1r	.	1r	.	2AMm	.	voice	.	40.857	A:9
16c#	-gine	.	.	.	.	.	.	.	.	.	.
8r	.	.	.	.	.	.	.	.	.	.	.
8.r	.	.	.	.	.	.	.	.	.	.	.
16B	the	.	.	.	.	.	.	.	.	.	.
8e	life	.	.	.	.	2EM	.	voice	.	42.384	E:maj/3
8d#	I'd	.	.	.	.	.	.	.	.	.	.
8B	be	.	.	.	.	.	.	.	.	.	.
8e	liv-	.	.	.	.	.	.	.	.	.	.
=15	=15	=15	=15	=15	=15	=15	=15	=15	=15	=15	=15
8d#	-in'	1r	.	1r	.	2BM	.	voice	.	43.911	B:maj/5
8r	.	.	.	.	.	.	.	.	.	.	.
8r	.	.	.	.	.	.	.	.	.	.	.
8B	if	.	.	.	.	.	.	.	.	.	.
8e	I	.	.	.	.	2EMm	.	voice	.	45.438	E:9
8d#	had-	.	.	.	.	.	.	.	.	.	.
8B	-'nt	.	.	.	.	.	.	.	.	.	.
[8c#	found	.	.	.	.	.	.	.	B	.	.
=16	=16	=16	=16	=16	=16	=16	=16	=16	=16	=16	=16
8c#]	_	1r	.	1r	.	1F#M	.	voice	.	46.965	F#:maj
8r	.	.	.	.	.	.	.	.	.	.	.
4r	.	.	.	.	.	.	.	.	.	.	.
8c#	Some-	.	.	.	.	.	.	.	.	.	.
8d#	-one	.	.	.	.	.	.	.	.	.	.
8g#	to	.	.	.	.	.	.	.	.	.	.
[8f#	hold	.	.	.	.	.	.	.	.	.	.
=17	=17	=17	=17	=17	=17	=17	=17	=17	=17	=17	=17
*>Letter>B	*>Letter>B	*>Letter>B	*>Letter>B	*>Letter>B	*>Letter>B	*>Letter>B	*>Letter>B	*>Letter>B	*>Letter>B	*>Letter>B	*>Letter>B
*>Label>Chorus	*>Label>Chorus	*>Label>Chorus	*>Label>Chorus	*>Label>Chorus	*>Label>Chorus	*>Label>Chorus	*>Label>Chorus	*>Label>Chorus	*>Label>Chorus	*>Label>Chorus	*>Label>Chorus
8f#]	_	1r	.	1r	.	1EM	newline	voice	.	50.02	E:maj
8g#	me	.	.	.	.	.	.	.	.	.	.
8r	.	.	.	.	.	.	.	.	.	.	.
8B	the	.	.	.	.	.	.	.	.	.	.
8B	way	.	.	.	.	.	.	.	.	.	.
8c#	that	.	.	.	.	.	.	.	.	.	.
8d#	you	.	.	.	.	.	.	.	.	.	.
8c#	do	.	.	.	.	.	.	.	C	.	.
=18	=18	=18	=18	=18	=18	=18	=18	=18	=18	=18	=18
2r	.	1r	.	1r	.	2.F#M	.	voice	.	53.071	F#:maj
8c#	Some-	.	.	.	.	.	.	.	.	.	.
8d#	-one	.	.	.	.	.	.	.	.	.	.
8g#	who	.	.	.	.	4C#M	.	voice	.	55.36	C#:maj/b4
[8f#	needs	.	.	.	.	.	.	.	.	.	.
=19	=19	=19	=19	=19	=19	=19	=19	=19	=19	=19	=19
8f#]	_	1r	.	1r	.	1EM	.	voice	.	56.123	E:maj
8g#	me	.	.	.	.	.	.	.	.	.	.
8r	.	.	.	.	.	.	.	.	.	.	.
8B	the	.	.	.	.	.	.	.	.	.	.
8B	way	.	.	.	.	.	.	.	.	.	.
8c#	I	.	.	.	.	.	.	.	.	.	.
8d#	need	.	.	.	.	.	.	.	.	.	.
8c#	you	.	.	.	.	.	.	.	C	.	.
=20	=20	=20	=20	=20	=20	=20	=20	=20	=20	=20	=20
2r	.	1r	.	1r	.	2F#M	.	voice	.	59.174	F#:maj
8c#	Some-	.	.	.	.	2C#M	.	voice	.	60.7	C#:maj/b4
8d#	-one	.	.	.	.	.	.	.	.	.	.
8g#	to	.	.	.	.	.	.	.	.	.	.
[8f#	show	.	.	.	.	.	.	.	.	.	.
=21	=21	=21	=21	=21	=21	=21	=21	=21	=21	=21	=21
8f#]	_	1r	.	1r	.	1EM	newline	voice	.	62.226	E:maj
8g#	me	.	.	.	.	.	.	.	.	.	.
8r	.	.	.	.	.	.	.	.	.	.	.
8G#	a	.	.	.	.	.	.	.	.	.	.
8B	way	.	.	.	.	.	.	.	.	.	.
8c#	that	.	.	.	.	.	.	.	.	.	.
8d#	is	.	.	.	.	.	.	.	.	.	.
8c#	true	.	.	.	.	.	.	.	C	.	.
=22	=22	=22	=22	=22	=22	=22	=22	=22	=22	=22	=22
2r	.	1r	.	1r	.	2F#M	.	voice	.	65.28	F#:maj
8e	Some-	.	.	.	.	2EM	.	voice	.	66.807	E:maj/3
8d#	-one	.	.	.	.	.	.	.	.	.	.
8B	to	.	.	.	.	.	.	.	.	.	.
8e	love	.	.	.	.	.	.	.	.	.	.
=23	=23	=23	=23	=23	=23	=23	=23	=23	=23	=23	=23
8d#	_	1r	.	1r	.	1BM	.	voice	.	68.335	B:sus4/b7
2..B	me	.	.	.	.	.	.	.	.	.	.
=24	=24	=24	=24	=24	=24	=24	=24	=24	=24	=24	=24
4r	.	1r	.	1r	.	1BM	.	voice	.	71.389	B:sus4/b7
8.r	.	.	.	.	.	.	.	.	.	.	.
16B	the	.	.	.	.	.	.	.	.	.	.
8e	way	.	.	.	.	.	.	.	.	.	.
16d#	that	.	.	.	.	.	.	.	.	.	.
[16c#	I	.	.	.	.	.	.	.	.	.	.
16c#]	_	.	.	.	.	.	.	.	.	.	.
[8.B	love	.	.	.	.	.	.	.	.	.	.
=25	=25	=25	=25	=25	=25	=25	=25	=25	=25	=25	=25
16B]	_	1r	.	1r	.	1BM	newline	voice	.	74.443	B:5
[8.B	you	.	.	.	.	.	.	.	C	.	.
2.B_	_	.	.	.	.	.	.	.	.	.	.
=26	=26	=26	=26	=26	=26	=26	=26	=26	=26	=26	=26
2B]	_	2r	.	1r	.	1BM	.	voice	.	77.473	B:5
8.r	.	8.r	.	.	.	.	.	.	.	.	.
16F#	When	16A#	When	.	.	.	.	.	.	.	.
16G#	there	16B	there	.	.	.	.	.	.	.	.
8A#	was	8c#	was	.	.	.	.	.	.	.	.
[16c#	no-	[16e	no-	.	.	.	.	.	.	.	.
=27	=27	=27	=27	=27	=27	=27	=27	=27	=27	=27	=27
*>Letter>A	*>Letter>A	*>Letter>A	*>Letter>A	*>Letter>A	*>Letter>A	*>Letter>A	*>Letter>A	*>Letter>A	*>Letter>A	*>Letter>A	*>Letter>A
*>Label>Verse	*>Label>Verse	*>Label>Verse	*>Label>Verse	*>Label>Verse	*>Label>Verse	*>Label>Verse	*>Label>Verse	*>Label>Verse	*>Label>Verse	*>Label>Verse	*>Label>Verse
4c#_	_	4e_	_	1r	.	2BM	newline	voice	.	80.504	B:maj
16c#]	_	16e]	_	.	.	.	.	.	.	.	.
8B	-one	8d#	-one	.	.	.	.	.	.	.	.
16A#	left	[16c#	left	.	.	.	.	.	.	.	.
8r	.	16c#]	_	.	.	2F#M	.	voice	.	82.045	F#:sus4
.	.	16r	.	.	.	.	.	.	.	.	.
16B	for	16r	.	.	.	.	.	.	.	.	.
[16A#	me	[16c#	me	.	.	.	.	.	.	.	.
8A#]	_	8c#]	_	.	.	.	.	.	.	.	.
16G#	to	16c#	to	.	.	.	.	.	.	.	.
[16F#	turn	[16d#	turn	.	.	.	.	.	.	.	.
=28	=28	=28	=28	=28	=28	=28	=28	=28	=28	=28	=28
16F#]	_	16d#]	_	1r	.	1EMm	.	voice	.	83.586	E:9
16G#	to	16e	to	.	.	.	.	.	C	.	.
8r	.	8r	.	.	.	.	.	.	.	.	.
4r	.	4r	.	.	.	.	.	.	.	.	.
8.r	.	8.r	.	.	.	.	.	.	.	.	.
16F#	When	16A#	When	.	.	.	.	.	.	.	.
16G#	all	16B	all	.	.	.	.	.	.	.	.
8A#	the	8c#	the	.	.	.	.	.	.	.	.
[16c#	world	[16e	world	.	.	.	.	.	.	.	.
=29	=29	=29	=29	=29	=29	=29	=29	=29	=29	=29	=29
4c#_	_	4e_	_	1r	.	2BM	.	voice	.	86.668	B:maj
16c#]	_	16e]	_	.	.	.	.	.	.	.	.
8B	I	8g#	I	.	.	.	.	.	.	.	.
[16A#	knew	[16f#	knew	.	.	.	.	.	.	.	.
8A#]	_	8f#]	_	.	.	2F#M	.	voice	.	88.21	F#:sus4
16B	was	16c#	was	.	.	.	.	.	.	.	.
16A#	fall-	8c#	fall-	.	.	.	.	.	.	.	.
16G#	_	.	.	.	.	.	.	.	.	.	.
8F#	-in'	8d#	-in'	.	.	.	.	.	.	.	.
[16G#	down	[16e	down	.	.	.	.	.	D	.	.
=30	=30	=30	=30	=30	=30	=30	=30	=30	=30	=30	=30
16G#]	_	16e]	_	1r	.	1EMm	.	voice	.	89.751	E:9
8.r	.	8.r	.	.	.	.	.	.	.	.	.
4r	.	4r	.	.	.	.	.	.	.	.	.
8r	.	2r	.	.	.	.	.	.	.	.	.
8B	Oh	.	.	.	.	.	.	.	.	.	.
16c#	there	.	.	.	.	.	.	.	.	.	.
8d#	were	.	.	.	.	.	.	.	.	.	.
[16f#	times	.	.	.	.	.	.	.	.	.	.
=31	=31	=31	=31	=31	=31	=31	=31	=31	=31	=31	=31
4f#_	_	1r	.	1r	.	2AMm	newline	voice	.	92.833	A:9
16f#]	_	.	.	.	.	.	.	.	.	.	.
8e	I	.	.	.	.	.	.	.	.	.	.
[16d#	could	.	.	.	.	.	.	.	.	.	.
16d#]	_	.	.	.	.	2EM	.	voice	.	94.367	E:maj/3
16e	not	.	.	.	.	.	.	.	.	.	.
16r	.	.	.	.	.	.	.	.	.	.	.
[16d#	face	.	.	.	.	.	.	.	.	.	.
8d#]	_	.	.	.	.	.	.	.	.	.	.
16c#	the	.	.	.	.	.	.	.	.	.	.
[16B	morn-	.	.	.	.	.	.	.	.	.	.
=32	=32	=32	=32	=32	=32	=32	=32	=32	=32	=32	=32
16B]	_	4r	.	1r	.	2AMm	.	voice	.	95.9	A:9
16c#	-in'	.	.	.	.	.	.	.	.	.	.
8r	.	.	.	.	.	.	.	.	.	.	.
8.r	.	4r	.	.	.	.	.	.	.	.	.
16B	but	.	.	.	.	.	.	.	.	.	.
8e	ev-	8g#	ev-	.	.	2EM	.	voice	.	97.434	E:maj/3
16d#	-ery-	16f#	-ery-	.	.	.	.	.	.	.	.
[16B	-thing's	[16d#	-thing's	.	.	.	.	.	.	.	.
8B]	_	8d#]	_	.	.	.	.	.	.	.	.
[8e	changed	[8g#	changed	.	.	.	.	.	.	.	.
=33	=33	=33	=33	=33	=33	=33	=33	=33	=33	=33	=33
8e]	_	8g#]	_	1r	.	2BM	.	voice	.	98.967	B:maj/5
8d#	since	8f#	since	.	.	.	.	.	.	.	.
8r	.	8r	.	.	.	.	.	.	.	.	.
16B	the	16~f#	the	.	.	.	.	.	.	.	.
[16e	day	[16g#	day	.	.	.	.	.	.	.	.
8e]	_	8g#]	_	.	.	2EMm	.	voice	.	100.5	E:9
8d#	that	8f#	that	.	.	.	.	.	.	.	.
8B	I	8e	I	.	.	.	.	.	.	.	.
[8c#	found	[8f#	found	.	.	.	.	.	D	.	.
=34	=34	=34	=34	=34	=34	=34	=34	=34	=34	=34	=34
8c#]	_	8f#]	_	1r	.	1F#M	.	voice	.	102.034	F#:maj
8r	.	8r	.	.	.	.	.	.	.	.	.
4r	.	4r	.	.	.	.	.	.	.	.	.
*	*	*clefF4	*	*	*	*	*	*	*	*	*
8c#	Some-	8C#	Some-	.	.	.	.	.	.	.	.
8d#	-one	8D#	-one	.	.	.	.	.	.	.	.
8g#	to	8G#	to	.	.	.	.	.	.	.	.
[8f#	hold	[8F#	hold	.	.	.	.	.	.	.	.
=35	=35	=35	=35	=35	=35	=35	=35	=35	=35	=35	=35
*>Letter>B	*>Letter>B	*>Letter>B	*>Letter>B	*>Letter>B	*>Letter>B	*>Letter>B	*>Letter>B	*>Letter>B	*>Letter>B	*>Letter>B	*>Letter>B
*>Label>Chorus	*>Label>Chorus	*>Label>Chorus	*>Label>Chorus	*>Label>Chorus	*>Label>Chorus	*>Label>Chorus	*>Label>Chorus	*>Label>Chorus	*>Label>Chorus	*>Label>Chorus	*>Label>Chorus
8f#]	_	8F#]	_	1r	.	1EM	newline	voice	.	105.101	E:maj
8g#	me	8G#	me	.	.	.	.	.	.	.	.
8r	.	8r	.	.	.	.	.	.	.	.	.
8B	the	8BB	the	.	.	.	.	.	.	.	.
8B	way	8BB	way	.	.	.	.	.	.	.	.
8c#	that	8C#	that	.	.	.	.	.	.	.	.
8d#	you	8D#	you	.	.	.	.	.	.	.	.
8c#	do	8C#	do	.	.	.	.	.	C	.	.
=36	=36	=36	=36	=36	=36	=36	=36	=36	=36	=36	=36
2r	.	2r	.	1r	.	2.F#M	.	voice	.	108.15	F#:maj
8c#	Some-	8C#	Some-	.	.	.	.	.	.	.	.
8d#	-one	8D#	-one	.	.	.	.	.	.	.	.
8g#	who	8G#	who	.	.	4C#M	.	voice	.	110.436	C#:maj/b4
[8f#	needs	[8F#	needs	.	.	.	.	.	.	.	.
=37	=37	=37	=37	=37	=37	=37	=37	=37	=37	=37	=37
8f#]	_	8F#]	_	1r	.	1EM	.	voice	.	111.199	E:maj
8g#	me	8G#	me	.	.	.	.	.	.	.	.
8r	.	8r	.	.	.	.	.	.	.	.	.
8B	the	8BB	the	.	.	.	.	.	.	.	.
8B	way	8BB	way	.	.	.	.	.	.	.	.
8c#	I	8C#	I	.	.	.	.	.	.	.	.
8d#	need	8D#	need	.	.	.	.	.	.	.	.
8c#	you	8C#	you	.	.	.	.	.	C	.	.
=38	=38	=38	=38	=38	=38	=38	=38	=38	=38	=38	=38
2r	.	2r	.	1r	.	2F#M	.	voice	.	114.247	F#:maj
8c#	Some-	8C#	Some-	.	.	2C#M	.	voice	.	115.772	C#:maj/b4
8d#	-one	8D#	-one	.	.	.	.	.	.	.	.
8g#	to	8G#	to	.	.	.	.	.	.	.	.
[8f#	show	[8F#	show	.	.	.	.	.	.	.	.
=39	=39	=39	=39	=39	=39	=39	=39	=39	=39	=39	=39
8f#]	_	8F#]	_	1r	.	1EM	newline	voice	.	117.296	E:maj
8g#	me	8G#	me	.	.	.	.	.	.	.	.
8r	.	8r	.	.	.	.	.	.	.	.	.
8G#	a	8GG#	a	.	.	.	.	.	.	.	.
8B	way	8BB	way	.	.	.	.	.	.	.	.
8c#	that	8C#	that	.	.	.	.	.	.	.	.
8d#	is	8D#	is	.	.	.	.	.	.	.	.
8c#	true	8C#	true	.	.	.	.	.	C	.	.
=40	=40	=40	=40	=40	=40	=40	=40	=40	=40	=40	=40
2r	.	2r	.	1r	.	2F#M	.	voice	.	120.346	F#:maj
8e	Some-	8E	Some-	.	.	2EM	.	voice	.	121.871	E:maj/3
8d#	-one	8D#	-one	.	.	.	.	.	.	.	.
8B	to	8BB	to	.	.	.	.	.	.	.	.
8e	love	8E	love	.	.	.	.	.	.	.	.
=41	=41	=41	=41	=41	=41	=41	=41	=41	=41	=41	=41
8d#	_	8D#	_	1r	.	1BM	.	voice	.	123.396	B:sus4/b7
2..B	me	2..BB	me	.	.	.	.	.	.	.	.
=42	=42	=42	=42	=42	=42	=42	=42	=42	=42	=42	=42
*	*	*clefG2	*	*	*	*	*	*	*	*	*
4r	.	4r	.	1r	.	1BM	.	voice	.	126.446	B:sus4/b7
8.r	.	8.r	.	.	.	.	.	.	.	.	.
16B	the	16~f#	the	.	.	.	.	.	.	.	.
8e	way	8g#	way	.	.	.	.	.	.	.	.
16d#	that	16f#	that	.	.	.	.	.	.	.	.
[16c#	I	[16e	I	.	.	.	.	.	.	.	.
16c#]	_	16e]	_	.	.	.	.	.	.	.	.
8.B	love	8.d#	love	.	.	.	.	.	.	.	.
=43	=43	=43	=43	=43	=43	=43	=43	=43	=43	=43	=43
*>Letter>C	*>Letter>C	*>Letter>C	*>Letter>C	*>Letter>C	*>Letter>C	*>Letter>C	*>Letter>C	*>Letter>C	*>Letter>C	*>Letter>C	*>Letter>C
*>Label>Solo	*>Label>Solo	*>Label>Solo	*>Label>Solo	*>Label>Solo	*>Label>Solo	*>Label>Solo	*>Label>Solo	*>Label>Solo	*>Label>Solo	*>Label>Solo	*>Label>Solo
1c#	you	1e	you	1r	.	1C#m	newline	guitar	C	129.496	C#:min
=44	=44	=44	=44	=44	=44	=44	=44	=44	=44	=44	=44
1r	.	1r	.	1r	.	1G#Mm	.	guitar	.	132.509	G#:7
=45	=45	=45	=45	=45	=45	=45	=45	=45	=45	=45	=45
1r	.	1r	.	1r	.	1AM	.	guitar	.	135.522	A:maj
=46	=46	=46	=46	=46	=46	=46	=46	=46	=46	=46	=46
1r	.	1r	.	1r	.	2.AM	.	guitar	.	138.536	A:maj
.	.	.	.	.	.	4C#m	.	guitar	.	140.796	C#:min/5
=47	=47	=47	=47	=47	=47	=47	=47	=47	=47	=47	=47
1r	.	1r	.	1r	.	1F#m	newline	guitar	.	141.549	F#:min
=48	=48	=48	=48	=48	=48	=48	=48	=48	=48	=48	=48
1r	.	1r	.	1r	.	1C#Mm	.	guitar	.	144.562	C#:7
=49	=49	=49	=49	=49	=49	=49	=49	=49	=49	=49	=49
8r	.	1r	.	1r	.	1DM	.	guitar	.	147.574	D:maj
16f#	Come	.	.	.	.	.	.	.	.	.	.
8a#	on!	.	.	.	.	.	.	.	.	.	.
16f#	Come	.	.	.	.	.	.	.	.	.	.
8a#	on!	.	.	.	.	.	.	.	.	.	.
16f#	Come	.	.	.	.	.	.	.	.	.	.
8a#	on!	.	.	.	.	.	.	.	.	.	.
16f#	Come	.	.	.	.	.	.	.	.	.	.
8a#	on	.	.	.	.	.	.	.	.	.	.
8f#	now!	.	.	.	.	.	.	.	.	.	.
=50	=50	=50	=50	=50	=50	=50	=50	=50	=50	=50	=50
2r	.	2r	.	1r	.	1F#m	.	guitar	.	150.587	F#:min
*	*	*clefF4	*	*	*	*	*	*	*	*	*
8c#	Some-	8C#	Some-	.	.	.	.	.	.	.	.
8d#	-one	8D#	-one	.	.	.	.	.	.	.	.
8g#	to	8G#	to	.	.	.	.	.	.	.	.
[8f#	hold	[8F#	hold	.	.	.	.	.	.	.	.
=51	=51	=51	=51	=51	=51	=51	=51	=51	=51	=51	=51
*>Letter>B	*>Letter>B	*>Letter>B	*>Letter>B	*>Letter>B	*>Letter>B	*>Letter>B	*>Letter>B	*>Letter>B	*>Letter>B	*>Letter>B	*>Letter>B
*>Label>Chorus	*>Label>Chorus	*>Label>Chorus	*>Label>Chorus	*>Label>Chorus	*>Label>Chorus	*>Label>Chorus	*>Label>Chorus	*>Label>Chorus	*>Label>Chorus	*>Label>Chorus	*>Label>Chorus
8f#]	_	8F#]	_	1r	.	1EM	newline	voice	.	153.6	E:maj
8g#	me	8G#	me	.	.	.	.	.	.	.	.
8r	.	8r	.	.	.	.	.	.	.	.	.
8B	the	8BB	the	.	.	.	.	.	.	.	.
8B	way	8BB	way	.	.	.	.	.	.	.	.
8c#	that	8C#	that	.	.	.	.	.	.	.	.
8d#	you	8D#	you	.	.	.	.	.	.	.	.
8c#	do	8C#	do	.	.	.	.	.	C	.	.
=52	=52	=52	=52	=52	=52	=52	=52	=52	=52	=52	=52
2r	.	2r	.	1r	.	2.F#M	.	voice	.	156.606	F#:maj
8c#	Some-	8C#	Some-	.	.	.	.	.	.	.	.
8d#	-one	8D#	-one	.	.	.	.	.	.	.	.
8g#	who	8G#	who	.	.	4C#M	.	voice	.	158.861	C#:maj/b4
[8f#	needs	[8F#	needs	.	.	.	.	.	.	.	.
=53	=53	=53	=53	=53	=53	=53	=53	=53	=53	=53	=53
8f#]	_	8F#]	_	1r	.	1EM	.	voice	.	159.612	E:maj
8g#	me	8G#	me	.	.	.	.	.	.	.	.
8r	.	8r	.	.	.	.	.	.	.	.	.
8B	the	8BB	the	.	.	.	.	.	.	.	.
8B	way	8BB	way	.	.	.	.	.	.	.	.
8c#	I	8C#	I	.	.	.	.	.	.	.	.
8d#	need	8D#	need	.	.	.	.	.	.	.	.
8c#	you	8C#	you	.	.	.	.	.	C	.	.
=54	=54	=54	=54	=54	=54	=54	=54	=54	=54	=54	=54
2r	.	2r	.	1r	.	2F#M	.	voice	.	162.618	F#:maj
8c#	Some-	8C#	Some-	.	.	2C#M	.	voice	.	164.122	C#:maj/b4
8d#	-one	8D#	-one	.	.	.	.	.	.	.	.
8g#	to	8G#	to	.	.	.	.	.	.	.	.
[8f#	show	[8F#	show	.	.	.	.	.	.	.	.
=55	=55	=55	=55	=55	=55	=55	=55	=55	=55	=55	=55
8f#]	_	8F#]	_	1r	.	1EM	newline	voice	.	165.625	E:maj
8g#	me	8G#	me	.	.	.	.	.	.	.	.
8r	.	8r	.	.	.	.	.	.	.	.	.
8G#	a	8GG#	a	.	.	.	.	.	.	.	.
8B	way	8BB	way	.	.	.	.	.	.	.	.
8c#	that	8C#	that	.	.	.	.	.	.	.	.
8d#	is	8D#	is	.	.	.	.	.	.	.	.
8c#	true	8C#	true	.	.	.	.	.	C	.	.
=56	=56	=56	=56	=56	=56	=56	=56	=56	=56	=56	=56
2r	.	2r	.	1r	.	2F#M	.	voice	.	168.612	F#:maj
8e	Some-	8E	Some-	.	.	2EM	.	voice	.	170.105	E:maj/3
8d#	-one	8D#	-one	.	.	.	.	.	.	.	.
8B	to	8BB	to	.	.	.	.	.	.	.	.
8e	love	8E	love	.	.	.	.	.	.	.	.
=57	=57	=57	=57	=57	=57	=57	=57	=57	=57	=57	=57
8d#	_	8D#	_	1r	.	1BM	.	voice	.	171.599	B:sus4/b7
2..B	me	2..BB	me	.	.	.	.	.	.	.	.
=58	=58	=58	=58	=58	=58	=58	=58	=58	=58	=58	=58
2r	.	2r	.	4r	.	1BM	.	voice	.	174.585	B:sus4/b7
.	.	.	.	4b	Yeah!	.	.	.	.	.	.
*	*	*clefF4	*	*	*	*	*	*	*	*	*
8c#	Some-	8C#	Some-	8b	Some	.	.	.	.	.	.
8d#	-one	8D#	-one	8r	.	.	.	.	.	.	.
8g#	to	8G#	to	4r	.	.	.	.	.	.	.
[8f#	hold	[8F#	hold	.	.	.	.	.	.	.	.
=59	=59	=59	=59	=59	=59	=59	=59	=59	=59	=59	=59
*>Letter>B	*>Letter>B	*>Letter>B	*>Letter>B	*>Letter>B	*>Letter>B	*>Letter>B	*>Letter>B	*>Letter>B	*>Letter>B	*>Letter>B	*>Letter>B
*>Label>Chorus	*>Label>Chorus	*>Label>Chorus	*>Label>Chorus	*>Label>Chorus	*>Label>Chorus	*>Label>Chorus	*>Label>Chorus	*>Label>Chorus	*>Label>Chorus	*>Label>Chorus	*>Label>Chorus
8f#]	_	8F#]	_	1r	.	1EM	newline	voice	.	177.572	E:maj
8g#	me	8G#	me	.	.	.	.	.	.	.	.
8r	.	8r	.	.	.	.	.	.	.	.	.
8B	the	8BB	the	.	.	.	.	.	.	.	.
8B	way	8BB	way	.	.	.	.	.	.	.	.
8c#	that	8C#	that	.	.	.	.	.	.	.	.
8d#	you	8D#	you	.	.	.	.	.	.	.	.
8c#	do	8C#	do	.	.	.	.	.	C	.	.
=60	=60	=60	=60	=60	=60	=60	=60	=60	=60	=60	=60
2r	.	2r	.	1r	.	2.F#M	.	voice	.	180.584	F#:maj
8c#	Some-	8C#	Some-	.	.	.	.	.	.	.	.
8d#	-one	8D#	-one	.	.	.	.	.	.	.	.
8g#	who	8G#	who	.	.	4C#M	.	voice	.	182.842	C#:maj/b4
[8f#	needs	[8F#	needs	.	.	.	.	.	.	.	.
=61	=61	=61	=61	=61	=61	=61	=61	=61	=61	=61	=61
8f#]	_	8F#]	_	1r	.	1EM	.	voice	.	183.595	E:maj
8g#	me	8G#	me	.	.	.	.	.	.	.	.
8r	.	8r	.	.	.	.	.	.	.	.	.
8B	the	8BB	the	.	.	.	.	.	.	.	.
8B	way	8BB	way	.	.	.	.	.	.	.	.
8c#	I	8C#	I	.	.	.	.	.	.	.	.
8d#	need	8D#	need	.	.	.	.	.	.	.	.
8c#	you	8C#	you	.	.	.	.	.	C	.	.
=62	=62	=62	=62	=62	=62	=62	=62	=62	=62	=62	=62
2r	.	2r	.	8r	.	2F#M	.	voice	.	186.606	F#:maj
.	.	.	.	8b	Some-	.	.	.	.	.	.
.	.	.	.	16b	-bo-	.	.	.	.	.	.
.	.	.	.	16g#	-dy	.	.	.	.	.	.
.	.	.	.	16f#	who	.	.	.	.	.	.
.	.	.	.	[16b	needs	.	.	.	.	.	.
8c#	Some-	8C#	Some-	16b]	_	2C#M	.	voice	.	188.112	C#:maj/b4
.	.	.	.	16b	me	.	.	.	.	.	.
8d#	-one	8D#	-one	8g#	I	.	.	.	.	.	.
8g#	to	8G#	to	12b	got	.	.	.	.	.	.
.	.	.	.	12cc#	me	.	.	.	.	.	.
[8f#	show	[8F#	show	.	.	.	.	.	.	.	.
.	.	.	.	12dd#	X	.	.	.	.	.	.
=63	=63	=63	=63	=63	=63	=63	=63	=63	=63	=63	=63
8f#]	_	8F#]	_	16g#	X	1EM	newline	voice	.	189.618	E:maj
.	.	.	.	16f#	_	.	.	.	.	.	.
8g#	me	8G#	me	16d#	_	.	.	.	.	.	.
.	.	.	.	16d#	_	.	.	.	.	.	.
8r	.	4r	.	8r	.	.	.	.	.	.	.
8G#	a	.	.	8r	.	.	.	.	.	.	.
8B	way	8BB	way	2r	.	.	.	.	.	.	.
8c#	that	8C#	that	.	.	.	.	.	.	.	.
8d#	is	8D#	is	.	.	.	.	.	.	.	.
8c#	true	8C#	true	.	.	.	.	.	C	.	.
=64	=64	=64	=64	=64	=64	=64	=64	=64	=64	=64	=64
2r	.	2r	.	4r	.	2F#M	.	voice	.	192.635	F#:maj
.	.	.	.	4b	Yeah!	.	.	.	.	.	.
8f#	Some-	8F#	Some-	2r	.	2EM	.	voice	.	194.144	E:maj/3
8e	-one	8E	-one	.	.	.	.	.	.	.	.
8d#	to	8D#	to	.	.	.	.	.	.	.	.
8e	love	8E	love	.	.	.	.	.	.	.	.
=65	=65	=65	=65	=65	=65	=65	=65	=65	=65	=65	=65
8d#	_	8D#	_	1r	.	1BM	.	voice	.	195.653	B:sus4/b7
[8B	me	[8BB	me	.	.	.	.	.	.	.	.
4B_	_	2BB_	_	.	.	.	.	.	.	.	.
4B_	_	.	.	.	.	.	.	.	.	.	.
16B]	_	8BB]	_	.	.	.	.	.	.	.	.
16G#	_	.	.	.	.	.	.	.	.	.	.
8r	.	8r	.	.	.	.	.	.	.	.	.
=66	=66	=66	=66	=66	=66	=66	=66	=66	=66	=66	=66
4r	.	1r	.	1r	.	1BM	.	voice	.	198.671	B:sus4/b7
8.r	.	.	.	.	.	.	.	.	.	.	.
16B	the	.	.	.	.	.	.	.	.	.	.
8e	way	.	.	.	.	.	.	.	.	.	.
16d#	that	.	.	.	.	.	.	.	.	.	.
[16c#	I	.	.	.	.	.	.	.	.	.	.
16c#]	_	.	.	.	.	.	.	.	.	.	.
8.B	love	.	.	.	.	.	.	.	.	.	.
=67	=67	=67	=67	=67	=67	=67	=67	=67	=67	=67	=67
8r	.	1r	.	1r	.	1BM	newline	guitar	.	201.689	B:maj
[8B	you	.	.	.	.	.	.	.	C	.	.
2B]	_	.	.	.	.	.	.	.	.	.	.
4r	.	.	.	.	.	.	.	.	.	.	.
=68	=68	=68	=68	=68	=68	=68	=68	=68	=68	=68	=68
1r	.	1r	.	1r	.	1EMM	.	guitar	.	204.72	E:maj7
=69	=69	=69	=69	=69	=69	=69	=69	=69	=69	=69	=69
1r	.	1r	.	1r	.	1C#mm	.	guitar	.	207.75	C#:min7
=70	=70	=70	=70	=70	=70	=70	=70	=70	=70	=70	=70
1r	.	1r	.	1r	.	1AMm	.	guitar	.	210.781	A:9
=71	=71	=71	=71	=71	=71	=71	=71	=71	=71	=71	=71
1r	.	1r	.	1r	.	1EM	newline	strings	.	213.812	E:maj
=72	=72	=72	=72	=72	=72	=72	=72	=72	=72	=72	=72
1r	.	1r	.	1r	.	1EM	.	strings	.	216.904	E:maj
=73	=73	=73	=73	=73	=73	=73	=73	=73	=73	=73	=73
1r	.	1r	.	1r	.	1EM	.	strings	.	219.997	E:maj
=74	=74	=74	=74	=74	=74	=74	=74	=74	=74	=74	=74
1r	.	1r	.	1r	.	1EM	.	strings	.	223.089	E:maj
=75	=75	=75	=75	=75	=75	=75	=75	=75	=75	=75	=75
1r	.	1r	.	1r	.	1EM	.	strings	.	226.181	E:maj
r;	.	r;	.	r;	.	1r;	.	r	.	229.274	N.C.
r;	.	r;	.	r;	.	1r;	.	r	.	231.445	N.C.
*-	*-	*-	*-	*-	*-	*-	*-	*-	*-	*-	*-
!!!BillboardChartDate: 1991/06/01
!!!BillboardPeak: 78
!!!BillboardWeeksOnChart: 10
!!!COC: The Rembrandts
!!!ENC: Nathaniel Condit-Schultz
!!!EST: Awating manual error checking and editing.
!!!OTL: Someone
!!!RDF**chordsym: original McGill chord annotation + (implied pitch class set, with bass pitch in first position)
!!!RDF**harmony: **recip + pitch class of root + harmonic quality
!!!RDF**leadinstrument: original McGill primary instrumentation annotation
!!!RDF**phrase: newline = linebreak in original McGill transcription
!!!RDF**timestamp: McGill audio timestamp in seconds
!!!RDT: 2017/01/12/
!!!SampleActualRank: 93
!!!SampleID#: 0414
!!!SampleTargetRank: 91
